X: 60
T:Dawns Forris Morgannwg
T:The Glamorganshire Morris Dance
M:C
L:1/8
Q:180
S:Cadw Twmpath Collection
A:Wales
Z:brian_martin12345@yahoo.com
K:G
BA|G2A2B2AG|Bcded2ef|g2d2dcB2|A6BA|
G2A2B2AG|Bcded2ef|g2de dcBA|G6:||
BA|G2A2B2AG|FGABc2BA|d2A2AGFE|D6 cd|
e2efe2g2|dcded2ef|g2d2dcBA|G6:||

